src/assets/outline/HeartAdd.svg

<svg width="24" height="24" viewBox="0 0 24 24"  xmlns="http://www.w3.org/2000/svg">
<path d="M17.1999 22.7504C14.1399 22.7504 11.6499 20.2604 11.6499 17.2004C11.6499 14.1404 14.1399 11.6504 17.1999 11.6504C20.2599 11.6504 22.7499 14.1404 22.7499 17.2004C22.7499 20.2604 20.2599 22.7504 17.1999 22.7504ZM17.1999 13.1504C14.9699 13.1504 13.1499 14.9704 13.1499 17.2004C13.1499 19.4304 14.9699 21.2504 17.1999 21.2504C19.4299 21.2504 21.2499 19.4304 21.2499 17.2004C21.2499 14.9704 19.4299 13.1504 17.1999 13.1504Z" />
<path d="M18.9899 18.0098H15.3999C14.9899 18.0098 14.6499 17.6698 14.6499 17.2598C14.6499 16.8498 14.9899 16.5098 15.3999 16.5098H18.9899C19.3999 16.5098 19.7399 16.8498 19.7399 17.2598C19.7399 17.6698 19.4099 18.0098 18.9899 18.0098Z" />
<path d="M17.2002 19.8497C16.7902 19.8497 16.4502 19.5097 16.4502 19.0997V15.5098C16.4502 15.0998 16.7902 14.7598 17.2002 14.7598C17.6102 14.7598 17.9502 15.0998 17.9502 15.5098V19.0997C17.9502 19.5097 17.6102 19.8497 17.2002 19.8497Z" />
<path d="M12 21.6497C11.69 21.6497 11.38 21.6097 11.13 21.5197C8.57 20.6497 1.25 16.4096 1.25 8.68964C1.25 5.18964 4.08 2.34961 7.56 2.34961C9.23 2.34961 10.83 3.01964 12 4.18964C13.17 3.01964 14.78 2.34961 16.44 2.34961C19.92 2.34961 22.75 5.18964 22.75 8.68964C22.75 10.6396 22.28 12.5096 21.35 14.2596C21.24 14.4696 21.03 14.6197 20.79 14.6497C20.54 14.6797 20.31 14.5996 20.14 14.4196C19.36 13.5996 18.31 13.1396 17.19 13.1396C14.96 13.1396 13.14 14.9596 13.14 17.1896C13.14 18.1796 13.51 19.1396 14.18 19.8896C14.34 20.0696 14.4 20.3096 14.35 20.5396C14.3 20.7696 14.14 20.9696 13.93 21.0696C13.53 21.2496 13.17 21.3996 12.84 21.5096C12.61 21.6096 12.31 21.6497 12 21.6497ZM7.56 3.84961C4.91 3.84961 2.75 6.01964 2.75 8.68964C2.75 15.5296 9.31999 19.3096 11.62 20.0996C11.8 20.1696 12.19 20.1596 12.37 20.0996C12.4 20.0896 12.43 20.0796 12.46 20.0696C11.94 19.2096 11.65 18.2196 11.65 17.1996C11.65 14.1396 14.14 11.6497 17.2 11.6497C18.38 11.6497 19.5 12.0196 20.44 12.6896C20.98 11.4096 21.25 10.0696 21.25 8.68964C21.25 6.01964 19.09 3.84961 16.44 3.84961C14.94 3.84961 13.5 4.56966 12.6 5.77966C12.32 6.15966 11.68 6.15966 11.4 5.77966C10.5 4.56966 9.06 3.84961 7.56 3.84961Z" />
</svg>

<?xml version="1.0" encoding="UTF-8"?>
<svg width="24" height="24" viewBox="0 0 24 24" xmlns="http://www.w3.org/2000/svg">
 <path d="m17.2 22.75c-3.06 0-5.55-2.49-5.55-5.55s2.49-5.55 5.55-5.55 5.55 2.49 5.55 5.55-2.49 5.55-5.55 5.55zm0-9.6c-2.23 0-4.05 1.82-4.05 4.05s1.82 4.05 4.05 4.05 4.05-1.82 4.05-4.05-1.82-4.05-4.05-4.05z"/>
 <path d="m18.99 18.01h-3.59c-0.41 0-0.75-0.34-0.75-0.75s0.34-0.75 0.75-0.75h3.59c0.41 0 0.75 0.34 0.75 0.75s-0.33 0.75-0.75 0.75z"/>
 <path d="m17.2 19.85c-0.41 0-0.75-0.34-0.75-0.75v-3.5899c0-0.41 0.34-0.75 0.75-0.75s0.75 0.34 0.75 0.75v3.5899c0 0.41-0.34 0.75-0.75 0.75z"/>
 <path d="m12 21.65c-0.31 0-0.62-0.04-0.87-0.13-2.56-0.87-9.88-5.1101-9.88-12.83 0-3.5 2.83-6.34 6.31-6.34 1.67 0 3.27 0.67003 4.44 1.84 1.17-1.17 2.78-1.84 4.44-1.84 3.48 0 6.31 2.84 6.31 6.34 0 1.95-0.47 3.82-1.4 5.57-0.11 0.21-0.32 0.3601-0.56 0.3901-0.25 0.03-0.48-0.0501-0.65-0.2301-0.78-0.82-1.83-1.28-2.95-1.28-2.23 0-4.05 1.82-4.05 4.05 0 0.99 0.37 1.95 1.04 2.7 0.16 0.18 0.22 0.42 0.17 0.65s-0.21 0.43-0.42 0.53c-0.4 0.18-0.76 0.33-1.09 0.44-0.23 0.1-0.53 0.1401-0.84 0.1401zm-4.44-17.8c-2.65 0-4.81 2.17-4.81 4.84 0 6.84 6.57 10.62 8.87 11.41 0.18 0.07 0.57 0.06 0.75 0 0.03-0.01 0.06-0.02 0.09-0.03-0.52-0.86-0.81-1.85-0.81-2.87 0-3.06 2.49-5.5499 5.55-5.5499 1.18 0 2.3 0.3699 3.24 1.0399 0.54-1.28 0.81-2.62 0.81-4 0-2.67-2.16-4.84-4.81-4.84-1.5 0-2.94 0.72005-3.84 1.93-0.28 0.38-0.92 0.38-1.2 0-0.9-1.21-2.34-1.93-3.84-1.93z"/>
</svg>
